X: 33442
T: Rabbit Stew
R: jig
M: 6/8
K: Edorian
|:F2A dcA|B2d dcB|c2A BAF|E2A dcA|
B2e edc|~e3 dcA|1 F2A dcA|B2d dcA:|2 B2d dcB|c2e edc||
|:edc dcA|FAB ABc|Bde f2a|~e3 edc|
edc dcA|FAB ABc|1 Bde f2a|~e3 edc:|2 Bde fdc|BAF E3||

